packages/foundations/assets/icons/functional/images/transportation/bike_trailer_32.svg

<svg width="32" height="32" viewBox="0 0 32 32" fill="none" xmlns="http://www.w3.org/2000/svg">
<g clip-path="url(#clip0_187_838)">
<path fill-rule="evenodd" clip-rule="evenodd" d="M10.0431 17.9534C11.9761 17.9534 13.5431 19.5204 13.5431 21.4534C13.5431 23.3864 11.9761 24.9534 10.0431 24.9534C8.1101 24.9534 6.5431 23.3864 6.5431 21.4534C6.5431 19.5204 8.1101 17.9534 10.0431 17.9534ZM10.0431 19.9534C9.21467 19.9534 8.5431 20.625 8.5431 21.4534C8.5431 22.2818 9.21467 22.9534 10.0431 22.9534C10.8715 22.9534 11.5431 22.2818 11.5431 21.4534C11.5431 20.625 10.8715 19.9534 10.0431 19.9534ZM3.62282 10.7959C4.28765 8.21697 6.87438 6.59754 9.50426 7.15711C10.0798 7.26652 11.2569 7.71718 13.0354 8.50909C14.6375 9.20918 16.1229 10.1526 17.4387 11.3068C19.4167 13.0419 21.045 14.7163 22.3238 16.333C22.4905 16.5438 22.5642 16.8112 22.5321 17.0743C22.5 17.3375 21.9022 19.7587 21.7594 19.9907C21.0557 21.1335 20.1701 21.9382 19.288 21.9458C18.7 21.9509 17.5794 21.9511 15.9265 21.9467C15.4454 21.9458 15.0431 21.4662 15.0431 20.9534C15.0431 20.4406 15.463 19.9601 15.9265 19.9601C17.8552 19.9601 18.8911 19.956 19.0342 19.9477C19.288 19.9632 19.5824 19.6442 19.8547 19.2522C20.0363 18.9909 20.2339 18.3043 20.4475 17.1924C18.9071 15.3963 17.4646 13.9356 16.1198 12.8103C14.937 11.8207 13.6698 10.9732 12.2696 10.3571C10.8693 9.74098 9.46144 9.17667 8.91456 9.08162C7.41299 8.85196 5.97258 9.78694 5.57104 11.2519L4.54346 16.0584C4.54346 17.84 4.54334 18.7947 4.54309 18.9226C4.54272 19.1144 4.66684 19.2036 4.78563 19.2332C5.32142 19.3672 5.64718 19.9101 5.51323 20.4459C5.37928 20.9817 4.83635 21.3075 4.30055 21.1735C3.32506 20.9297 2.54309 20.0297 2.54309 18.9556C2.54309 17.8413 2.54309 16.8405 2.54309 15.9534C2.54309 15.7933 2.903 14.0742 3.62282 10.7959ZM28.4569 18.2637C29.0092 18.2637 29.4569 18.7115 29.4569 19.2637C29.4569 19.816 29.0092 20.2637 28.4569 20.2637C28.1335 20.2637 27.8137 20.3257 27.5146 20.4457L25.6966 21.3338C25.3527 21.5033 24.9151 21.6255 24.5993 21.6343C24.3888 21.6401 24.1459 21.643 23.8707 21.643C23.3184 21.643 22.8707 21.1953 22.8707 20.643C22.8707 20.1302 23.2861 19.643 23.8707 19.6498L24.37 19.643C24.485 19.643 24.5988 19.6232 24.7066 19.5847C24.7785 19.559 25.3607 19.2744 26.4534 18.7308C27.0765 18.4235 27.7621 18.2637 28.4569 18.2637ZM7.33594 12.0516C7.5644 11.3224 8.3252 10.8402 9.08803 11.0015C10.3263 11.5096 11.3559 11.9572 12.1766 12.3442C13.4077 12.9246 14.5311 13.7103 15.4987 14.6676C15.8616 15.0339 16.1457 15.3352 16.3509 15.5713C16.6586 15.9256 16.6005 16.5384 16.2298 16.8884C15.8592 17.2384 15.2914 17.2498 14.908 16.9337C14.8012 16.8156 14.513 16.5182 14.0436 16.0417C13.3393 15.3268 12.3665 14.6533 11.3851 14.1824L9.13076 13.2014L8.69043 15.2482C8.59207 15.6587 8.09568 16.0311 7.53591 15.907C6.97614 15.7829 6.67978 15.2482 6.74685 14.8373C6.80393 14.5255 7.00029 13.5969 7.33594 12.0516Z" fill="#1A1C1F"/>
</g>
<defs>
<clipPath id="clip0_187_838">
<rect width="32" height="32" fill="white"/>
</clipPath>
</defs>
</svg>

<svg xmlns="http://www.w3.org/2000/svg" width="32" height="32" fill="none"><g clip-path="url(#a)"><path fill="#1A1C1F" fill-rule="evenodd" d="M10.043 17.953a3.5 3.5 0 1 1 0 7 3.5 3.5 0 0 1 0-7m0 2a1.5 1.5 0 1 0 0 3 1.5 1.5 0 0 0 0-3m-6.42-9.157a5 5 0 0 1 5.881-3.639q.864.165 3.531 1.352a17 17 0 0 1 4.404 2.798q2.967 2.602 4.885 5.026a1 1 0 0 1 .208.741c-.032.263-.63 2.685-.773 2.917-.703 1.143-1.589 1.947-2.471 1.955a363 363 0 0 1-3.361 0c-.482 0-.884-.48-.884-.993 0-.512.42-.993.884-.993q2.892 0 3.107-.012c.254.015.548-.304.82-.696q.273-.392.594-2.06-2.31-2.693-4.328-4.382c-1.183-.99-2.45-1.837-3.85-2.453S9.46 9.177 8.915 9.082a3 3 0 0 0-3.344 2.17l-1.028 4.806v2.865c0 .191.124.28.243.31a1 1 0 0 1-.485 1.94c-.976-.243-1.758-1.143-1.758-2.217v-3.003q0-.24 1.08-5.157m24.834 7.468a1 1 0 0 1 0 2 2.5 2.5 0 0 0-.942.182l-1.818.888c-.344.17-.782.291-1.098.3q-.315.009-.728.009a1 1 0 0 1-1-1c0-.513.415-1 1-.993l.499-.007a1 1 0 0 0 .337-.058q.108-.038 1.746-.854a4.5 4.5 0 0 1 2.004-.467M7.336 12.052c.228-.73.99-1.212 1.752-1.05a68 68 0 0 1 3.089 1.342 12 12 0 0 1 3.322 2.324q.544.549.852.903c.308.355.25.967-.121 1.317a1 1 0 0 1-1.322.046 42 42 0 0 0-.864-.892c-.705-.715-1.678-1.389-2.659-1.86l-2.254-.98-.44 2.046c-.099.41-.595.783-1.155.659s-.856-.659-.79-1.07q.086-.468.59-2.785" clip-rule="evenodd"/></g><defs><clipPath id="a"><path fill="#fff" d="M0 0h32v32H0z"/></clipPath></defs></svg>
